!!!COM: Palestrina, Giovanni Perluigi da
!!!OPR: Missa Regina coeli (1600)
!!!OMD: Credo
!!!OTL: Crucifixus
**kern	**kern	**kern	**kern
*Itenor	*Itenor	*Icalto	*Icant
!Tenor 2	!Tenor 1	!Altus	!Cantus
*clefGv2	*clefGv2	*clefG2	*clefG2
*k[b-]	*k[b-]	*k[b-]	*k[b-]
*F:ion	*F:ion	*F:ion	*F:ion
*M4/2	*M4/2	*M4/2	*M4/2
=100	=100	=100	=100
0r	0r	1c	0r
.	.	1g	.
=101	=101	=101	=101
0r	1F	1a	0r
.	1c	1g	.
=102	=102	=102	=102
0r	1d	2r	1f
.	.	1f	.
.	1c	.	1cc
.	.	2e	.
=103	=103	=103	=103
0r	2r	1d	1dd
.	1B-	.	.
.	.	1f	1cc
.	2A	.	.
=104	=104	=104	=104
1r	4G	1g	2r
.	4A	.	.
.	4B-	.	1b-
.	4c	.	.
1F	4d	1f	.
.	4e	.	.
.	[2f	.	2a
=105	=105	=105	=105
1c	2f]	0r	1g
.	2e	.	.
1d	4d	.	1f
.	4B-	.	.
.	[2f	.	.
=106	=106	=106	=106
1c	2f]	2r	1g
.	2e	1cc	.
2r	1f	.	2a
[2B-	.	2f	[2dd
=107	=107	=107	=107
2B-]	2r	2g	2dd]
2A	1f	2a	2cc
1G	.	[1b-	2dd
.	2e	.	2ee
=108	=108	=108	=108
1F	2d	2b-]	1ff
.	2c	2a	.
1G	2.g	1b-	2ee
.	.	.	[2dd
.	4f	.	.
=109	=109	=109	=109
1A	1e	2.a	2dd]
.	.	.	2cc#
.	.	4g	.
2r	1d	2.f	[1dd
2B-	.	.	.
.	.	4e	.
=110	=110	=110	=110
2B-	2r	0d	1dd]
2G	2B-	.	.
2.B-	2B-	.	2r
.	2G	.	2b-
4c	.	.	.
=111	=111	=111	=111
2d	2B-	0r	2b-
2e-	2c	.	2g
4d	1F	.	2a
4c	.	.	.
[2f	.	.	2a
=112	=112	=112	=112
2f]	1G	1r	1.b-
2e	.	.	.
2.f	1F	2r	.
.	.	[2f	4a
4e	.	.	4g
=113	=113	=113	=113
0d	2r	2f]	2a
.	1B-	2d	2f
.	.	2f	2r
.	2G	[2g	[2b-
=114	=114	=114	=114
1r	2B-	4g]	2b-]
.	.	4f	.
.	2c	2e	2g
2r	2B-	2d	2b-
[2f	2A	2c	2cc
=115	=115	=115	=115
2f]	2.B-	4d	2f
.	.	4e	.
2d	.	4f	2.ff
.	4A	4g	.
1f	4F	4a	.
.	4G	4b-	4ee
.	2A	[2cc	4cc
.	.	.	4dd
=116	=116	=116	=116
1g	1G	2cc]	2ee-
.	.	2b-	2dd
1c	1r	2a	2.cc
.	.	[2g	.
.	.	.	4b-
=117	=117	=117	=117
1d	0r	4g]	2a
.	.	4f	.
.	.	1f	4g
.	.	.	4f
1c	.	.	1g
.	.	2e	.
=118	=118	=118	=118
0F	1r	2f	2.a
.	.	1cc	.
.	.	.	4g
.	1f	.	4a
.	.	.	4b-
.	.	[2a	2cc
=119	=119	=119	=119
0r	2.d	4a]	1f
.	.	4g	.
.	.	2a	.
.	4c	.	.
.	2d	2b-	1r
.	2e	[2g	.
=120	=120	=120	=120
0r	2.c	4g]	1r
.	.	4f	.
.	.	2g	.
.	4B-	.	.
.	2c	2a	2r
.	2d	[2f	2ff
=121	=121	=121	=121
0r	2.B-	2f]	2.dd
.	.	2.b-	.
.	4A	.	4cc
.	2B-	.	2dd
.	.	4a	.
.	[2c	4g	2ee
.	.	4f	.
=122	=122	=122	=122
0r	4c]	2g	2.cc
.	4B-	.	.
.	4A	2.a	.
.	4G	.	4b-
.	2A	.	2cc
.	.	4g	.
.	2B-	[2f	2dd
=123	=123	=123	=123
1r	2G	2f]	2.b-
.	2G	2e	.
.	.	.	8a
.	.	.	8g
2r	1F	[1f	1a
2f	.	.	.
=124	=124	=124	=124
2.d	2.B-	1f]	2r
.	.	.	2.b-
4c	4A	.	.
2d	2G	1r	.
.	.	.	4a
2e	4c	.	2g
.	4d	.	.
=125	=125	=125	=125
2.c	4e	2r	2.cc
.	4f	.	.
.	1g	2.cc	.
4B-	.	.	4dd
2c	.	.	4ee
.	.	4b-	8dd
.	.	.	8ee
2d	2f	2a	[2ff
=126	=126	=126	=126
1B-	2d	1b-	4ff]
.	.	.	4ee
.	1f	.	2dd
1r	.	2a	[1cc
.	4e	4g	.
.	4d	4f	.
=127	=127	=127	=127
1c	1e	2.g	1cc]
.	.	8f	.
.	.	8e	.
2B-	2r	2d	1r
2A	2f	2a	.
=128	=128	=128	=128
2c	2e	1g	0r
2.B-	2d	.	.
.	1f	1r	.
4A	.	.	.
[2d	.	.	.
=129	=129	=129	=129
4d]	2.e	1r	0r
4c	.	.	.
1c	.	.	.
.	4c	.	.
.	1d	2r	.
2B-	.	[2f	.
=130	=130	=130	=130
1c	1c	2f]	2r
.	.	2e	2cc
1f	1r	2d	2b-
.	.	2f	2a
=131	=131	=131	=131
2e	0r	2c	2cc
2d	.	2G	2.b-
1f	.	1d	.
.	.	.	4a
.	.	.	[2dd
=132	=132	=132	=132
2.e	0r	1r	4dd]
.	.	.	4cc
.	.	.	1cc
4c	.	.	.
1d	.	2r	.
.	.	2f	2b
=133	=133	=133	=133
1c	2r	2g	1cc
.	2F	2a	.
1r	2G	2g	1r
.	2A	2f	.
=134	=134	=134	=134
0r	2G	2b-	0r
.	2F	4a	.
.	.	4g	.
.	4B-	4f	.
.	4c	4e	.
.	4d	4f	.
.	4e	4g	.
=135	=135	=135	=135
0r	2.f	4a	1cc
.	.	4b-	.
.	.	2cc	.
.	4e	.	.
.	2d	2b-	2dd
.	2c	4a	2ee
.	.	4g	.
=136	=136	=136	=136
0r	2.f	4a	2dd
.	.	4b-	.
.	.	1cc	2cc
.	4e	.	.
.	1d	.	1ff
.	.	2b-	.
=137	=137	=137	=137
2r	1c	4cc	4ee
.	.	4b-	4dd
2c	.	4a	4cc
.	.	4g	4b-
2d	1r	2f	2a
2e-	.	2c	2g
=138	=138	=138	=138
2d	0r	1f	2a
2B-	.	.	2b-
4f	.	2r	2a
4g	.	.	.
4a	.	2d	2f
4f	.	.	.
=139	=139	=139	=139
2g	0r	2e	2cc
2a	.	2f	2.dd
2g	.	2e	.
.	.	.	4cc
2e	.	2c	[2cc
=140	=140	=140	=140
1d	1G	2.g	2cc]
.	.	.	2b
.	.	4f	.
2r	2A	2e	2cc
2f	2B-	2d	2dd
=141	=141	=141	=141
2a	2A	1c	2ee
2a	2F	.	2ff
2g	2.c	2r	2.ee
4c	.	2g	.
4d	4B-	.	4dd
=142	=142	=142	=142
4e	2A	2a	2cc
4c	.	.	.
2g	2G	2b-	2.dd
4f	1A	2a	.
4e	.	.	4cc
4d	.	2f	[2cc
4c	.	.	.
=143	=143	=143	=143
2d	1G	1g	2cc]
2g	.	.	2b
2.g	2r	4c	1cc
.	.	4d	.
.	2c	4e	.
4f	.	4f	.
=144	=144	=144	=144
2e	2.c	4g	2r
.	.	4f	.
2g	.	2e	2cc
.	4B-	.	.
2a	2A	1c	2.cc
2e	2c	.	.
.	.	.	4b-
=145	=145	=145	=145
2f	2d	0r	2a
2g	2e	.	2cc
2.a	2f	.	2dd
.	2c	.	2ee
4a	.	.	.
=146	=146	=146	=146
1a	2d	2r	2ff
.	2A	2f	2cc
1r	4B-	2.f	[1dd
.	4c	.	.
.	4d	.	.
.	4e	4e	.
=147	=147	=147	=147
0r	2.f	2d	2dd]
.	.	2f	2a
.	4d	.	.
.	2e	2g	1cc
.	2f	2a	.
=148	=148	=148	=148
1r	2B-	2b-	2dd
.	2d	2f	1ff
2r	1c	2g	.
2c	.	2a	4ee
.	.	.	4dd
=149	=149	=149	=149
2.c	0r	2g	2.ee
.	.	2.cc	.
4B-	.	.	4dd
2A	.	.	2.cc
.	.	4b-	.
2c	.	[2a	.
.	.	.	8b-
.	.	.	8a
=150	=150	=150	=150
2d	0r	4a]	2b-
.	.	8g	.
.	.	8f	.
2e	.	2g	2b-
2f	.	2.a	[1a
2c	.	.	.
.	.	4g	.
=151	=151	=151	=151
2d	2r	2f	1a]
2A	2a	2e	.
2B-	2g	1d	1r
[2d	[2f	.	.
=152	=152	=152	=152
2d]	2f]	1a	1r
2c	2e	.	.
1B-	1d	2g	2r
.	.	[2f	[2dd
=153	=153	=153	=153
1A	1a	2f]	2dd]
.	.	2e	2cc
1G	1d	1g	1b-
=154	=154	=154	=154
1F	2.f	1c	2a
.	.	.	1cc
.	4e	.	.
1G	4d	2.g	.
.	4c	.	.
.	2d	.	[2b-
.	.	4f	.
=155	=155	=155	=155
1A	1c	2e	2b-]
.	.	1f	2.a
1B-	1d	.	.
.	.	.	8g
.	.	.	8f
.	.	4e	2g
.	.	4d	.
=156	=156	=156	=156
0A	2e	2c	2.a
.	1d	2d	.
.	.	.	4a
.	.	2e	1a
.	2c#	2e	.
=157	=157	=157	=157
1r	1d	1f#	2r
.	.	.	2a
1G	2r	[1g	1b
.	2d	.	.
=158	=158	=158	=158
1c	1e	1g]	1cc
1F	1f	1a	2cc
.	.	.	2ff
=159	=159	=159	=159
1F	2f	2r	2dd
.	2f	2a	2cc
1r	2d	2b-	2dd
.	2c	2a	[2ee
=160	=160	=160	=160
0r	2.e	2.g	4ee]
.	.	.	4dd
.	.	.	1cc
.	4f	4a	.
.	1d	1f	.
.	.	.	2b
=161	=161	=161	=161
2r	1c	2g	1cc
2c	.	2e	.
2A	1r	2f	1r
2G	.	[2g	.
=162	=162	=162	=162
2.A	1r	4g]	2r
.	.	4f	.
.	.	1f	2f
4B-	.	.	.
1G	1B-	.	1g
.	.	2e	.
=163	=163	=163	=163
1F	1c	0f	0a
2r	2.d	.	.
2f	.	.	.
.	4e	.	.
=164	=164	=164	=164
2d	2f	1r	0a
2c	2e	.	.
2.d	[1f	2r	.
.	.	2f	.
4c	.	.	.
=165	=165	=165	=165
2B-	0f]	2d	1r
2A	.	2c	.
[1B-	.	2.d	2r
.	.	.	2ff
.	.	4e	.
=166	=166	=166	=166
2B-]	2r	4f	2dd
.	.	4g	.
2A	2f	2a	2cc
2B-	2d	2.g	2dd
[2c	2c	.	[2ee
.	.	4f	.
=167	=167	=167	=167
2c]	2e	2g	4ee]
.	.	.	4dd
2F	2f	2a	1cc
1G	1d	1g	.
.	.	.	2b
=168	=168	=168	=168
0c	0e	0g	0cc
*-	*-	*-	*-
!!!CDT: 1525/^1526/-1594/2/2
!!!OCY: Italia
!!!AGN: Mass (Paraphrase)
!!!AST: renaissance, vocal
!!!ASW: Antiphon
!!!PWK: Masses, Book 11
!!!RNB: Cadence finals: C
!!!YOR: Le Opere Complete, v. 28, p. 32
!!!YOO: Rome, Italy: Fratelli Scalera
!!!END: 1992//
!!!EED: John Miller
!!!YEC: Copyright 2000, John Miller
!!!YEN: United States of America
!!!YEM: Rights to all derivative electronic formats reserved.
!!!YEM: Refer to licensing agreement for further details.
!!!YEM: This file must be accompanied by the licensing agreement.
!!!YEM: A copy of the licensing agreement may be found at http://www.music-cog.ohio-state.edu/HumdrumDatabases/Palestrina/license.txt
!!!EMD: converted to Humdrum by Bret Aarden
